X: 39792
T: Thatcher's Downfall
R: jig
M: 6/8
K: Amajor
|:EAA cBA|def efg|acc cBA|dBB B2 d|
cBA def|efg aec|dBe cAe|BcB A3:|
a3 =gfe|faf ecA|ABc cBA|dBB Bce|
a3 =gfe|faf ecA|ABc cBA|BcB Ace|
a3 =gfe|faf ecA|ABc cBA|dBB B2 d|
cBA def|efg aec|dBe cAe|BcB A3|

